X:1
T:Castletown Connors
R:jig
M:6/8
L:1/8
K:Bdor
e|:fbb fga|efd ~c2c|dcd ede|~f2e fga|
|fbb fga|efd ~c2c|Ace aec|1 ~B2B Bce:|2 ~B2B B2=g|]
|:fBc d2e|fed cBA|fBc d2e|~f2e fba|
|fBc d2e|fed ~c2c|Ace aec|1 ~B2B B2=g:|2 ~B2B Bce|]